X: 6872
T: Charmer, The
R: jig
M: 6/8
K: Gmajor
|:D|GAG BAB|d2 G e2 g|edc BAG|EAA A2 B|
GAG BAG|d2 G e2 G|gfe dec|BGG G2:|
|:d|gdB GAG|DED GAG|edc BAG|EAA A2 f|
gdB GAG|ecA FED|gfe ded|BGG G2:|

